src/assets/AllApps.svg

<svg fill="none" height="24" viewBox="0 0 24 24" width="24" xmlns="http://www.w3.org/2000/svg" xmlns:xlink="http://www.w3.org/1999/xlink"><mask id="a" fill="#fff"><path clip-rule="evenodd" d="m9.33072-.00012207c-1.47276 0-2.66666 1.19390207-2.66666 2.66665207h10.66664c0-1.47275-1.1939-2.66665207-2.6667-2.66665207zm-6.6647 6.66665207c0-1.47275 1.1939-2.66665 2.66665-2.66665h13.33323c1.4728 0 2.6667 1.1939 2.6667 2.66665zm-.66603 1.33335c-1.104563 0-1.99999.89542-1.99999 1.99999v11.99993c0 1.1046.895426 2 1.99999 2h19.99991c1.1046 0 2-.8954 2-2v-11.99993c0-1.10457-.8954-1.99999-2-1.99999zm9.02111 3.64452v3.377h-3.37689c-.54024 0-.97819.4379-.97819.9782 0 .5402.43795.9782.97818.9782h3.3769v3.3769c0 .5402.438.9782.9782.9782.5403 0 .9782-.438.9782-.9782v-3.3769h3.3769c.5403 0 .9782-.438.9782-.9782 0-.5403-.4379-.9782-.9782-.9782h-3.3769v-3.377c0-.5402-.4379-.9781-.9782-.9781-.5402 0-.9782.4379-.9782.9781z" fill="#fff" fill-rule="evenodd"/></mask><path clip-rule="evenodd" d="m9.33072-.00012207c-1.47276 0-2.66666 1.19390207-2.66666 2.66665207h10.66664c0-1.47275-1.1939-2.66665207-2.6667-2.66665207zm-6.6647 6.66665207c0-1.47275 1.1939-2.66665 2.66665-2.66665h13.33323c1.4728 0 2.6667 1.1939 2.6667 2.66665zm-.66603 1.33335c-1.104563 0-1.99999.89542-1.99999 1.99999v11.99993c0 1.1046.895426 2 1.99999 2h19.99991c1.1046 0 2-.8954 2-2v-11.99993c0-1.10457-.8954-1.99999-2-1.99999zm9.02111 3.64452v3.377h-3.37689c-.54024 0-.97819.4379-.97819.9782 0 .5402.43795.9782.97818.9782h3.3769v3.3769c0 .5402.438.9782.9782.9782.5403 0 .9782-.438.9782-.9782v-3.3769h3.3769c.5403 0 .9782-.438.9782-.9782 0-.5403-.4379-.9782-.9782-.9782h-3.3769v-3.377c0-.5402-.4379-.9781-.9782-.9781-.5402 0-.9782.4379-.9782.9781z" fill="#089c96" fill-rule="evenodd"/><path d="m6.66406 2.66653h-.5v.5h.5zm10.66664 0v.5h.5v-.5zm-14.66468 4h-.5v.5h.5zm18.66658 0v.5h.5v-.5zm-10.3115 8.35487v.5h.5v-.5zm0 1.9564h.5v-.5h-.5zm1.9564 0v-.5h-.5v.5zm0-1.9564h-.5v.5h.5zm-5.81344-12.35487c0-1.19661.97005-2.166652 2.16666-2.166652v-1c-1.7489 0-3.16666 1.417759-3.16666 3.166652zm10.16664-.5h-10.66664v1h10.66664zm-2.6667-1.666652c1.1966 0 2.1667.970042 2.1667 2.166652h1c0-1.748893-1.4178-3.166652-3.1667-3.166652zm-5.33328 0h5.33328v-1h-5.33328zm-3.99805 3.000002c-1.74889 0-3.16665 1.41776-3.16665 3.16665h1c0-1.19661.97004-2.16665 2.16665-2.16665zm13.33323 0h-13.33323v1h13.33323zm3.1667 3.16665c0-1.74889-1.4178-3.16665-3.1667-3.16665v1c1.1967 0 2.1667.97004 2.1667 2.16665zm-19.16658.5h18.66658v-1h-18.66658zm-2.16602 2.83334c0-.82842.67157-1.49999 1.49999-1.49999v-1c-1.380706 0-2.49999 1.11928-2.49999 2.49999zm0 11.99993v-11.99993h-1v11.99993zm1.49999 1.5c-.82842 0-1.49999-.6716-1.49999-1.5h-1c0 1.3807 1.119284 2.5 2.49999 2.5zm19.99991 0h-19.99991v1h19.99991zm1.5-1.5c0 .8284-.6716 1.5-1.5 1.5v1c1.3807 0 2.5-1.1193 2.5-2.5zm0-11.99993v11.99993h1v-11.99993zm-1.5-1.49999c.8284 0 1.5.67157 1.5 1.49999h1c0-1.38071-1.1193-2.49999-2.5-2.49999zm-19.99991 0h19.99991v-1h-19.99991zm9.52111 6.52152v-3.377h-1v3.377zm-3.87689.5h3.37689v-1h-3.37689zm-.47819.4782c0-.2641.21409-.4782.47819-.4782v-1c-.81639 0-1.47819.6618-1.47819 1.4782zm.47818.4782c-.26409 0-.47818-.2141-.47818-.4782h-1c0 .8163.6618 1.4782 1.47818 1.4782zm3.3769 0h-3.3769v1h3.3769zm.5 3.8769v-3.3769h-1v3.3769zm.4782.4782c-.2641 0-.4782-.2141-.4782-.4782h-1c0 .8164.6618 1.4782 1.4782 1.4782zm.4782-.4782c0 .2641-.2141.4782-.4782.4782v1c.8164 0 1.4782-.6618 1.4782-1.4782zm0-3.3769v3.3769h1v-3.3769zm3.8769-.5h-3.3769v1h3.3769zm.4782-.4782c0 .2641-.2141.4782-.4782.4782v1c.8164 0 1.4782-.6618 1.4782-1.4782zm-.4782-.4782c.2641 0 .4782.2141.4782.4782h1c0-.8164-.6618-1.4782-1.4782-1.4782zm-3.3769 0h3.3769v-1h-3.3769zm-.5-3.877v3.377h1v-3.377zm-.4782-.4781c.2641 0 .4782.2141.4782.4781h1c0-.8163-.6618-1.4781-1.4782-1.4781zm-.4782.4781c0-.264.2141-.4781.4782-.4781v-1c-.8164 0-1.4782.6618-1.4782 1.4781z" fill="#000" fill-opacity=".08" mask="url(#a)"/></svg>

<svg xmlns="http://www.w3.org/2000/svg" width="24" height="24" viewBox="0 0 24 24" fill="none">
  <mask id="path-1-inside-1_2701_44251" fill="white">
    <path fill-rule="evenodd" clip-rule="evenodd" d="M9.33072 -0.00012207C7.85796 -0.00012207 6.66406 1.19378 6.66406 2.66653H17.3307C17.3307 1.19378 16.1368 -0.00012207 14.664 -0.00012207H9.33072ZM2.66602 6.66653C2.66602 5.19378 3.85992 3.99988 5.33267 3.99988H18.6659C20.1387 3.99988 21.3326 5.19378 21.3326 6.66653H2.66602ZM1.99999 7.99988C0.895427 7.99988 0 8.8953 0 9.99987V21.9998C0 23.1044 0.895426 23.9998 1.99999 23.9998H21.9999C23.1045 23.9998 23.9999 23.1044 23.9999 21.9998V9.99987C23.9999 8.8953 23.1045 7.99988 21.9999 7.99988H1.99999ZM11.0211 11.6444V15.0214H7.64421C7.10397 15.0214 6.66602 15.4593 6.66602 15.9996C6.66602 16.5398 7.10397 16.9778 7.6442 16.9778H11.0211V20.3547C11.0211 20.8949 11.4591 21.3329 11.9993 21.3329C12.5396 21.3329 12.9775 20.8949 12.9775 20.3547V16.9778H16.3544C16.8947 16.9778 17.3326 16.5398 17.3326 15.9996C17.3326 15.4593 16.8947 15.0214 16.3544 15.0214H12.9775V11.6444C12.9775 11.1042 12.5396 10.6663 11.9993 10.6663C11.4591 10.6663 11.0211 11.1042 11.0211 11.6444Z"/>
  </mask>
  <path fill-rule="evenodd" clip-rule="evenodd" d="M9.33072 -0.00012207C7.85796 -0.00012207 6.66406 1.19378 6.66406 2.66653H17.3307C17.3307 1.19378 16.1368 -0.00012207 14.664 -0.00012207H9.33072ZM2.66602 6.66653C2.66602 5.19378 3.85992 3.99988 5.33267 3.99988H18.6659C20.1387 3.99988 21.3326 5.19378 21.3326 6.66653H2.66602ZM1.99999 7.99988C0.895427 7.99988 0 8.8953 0 9.99987V21.9998C0 23.1044 0.895426 23.9998 1.99999 23.9998H21.9999C23.1045 23.9998 23.9999 23.1044 23.9999 21.9998V9.99987C23.9999 8.8953 23.1045 7.99988 21.9999 7.99988H1.99999ZM11.0211 11.6444V15.0214H7.64421C7.10397 15.0214 6.66602 15.4593 6.66602 15.9996C6.66602 16.5398 7.10397 16.9778 7.6442 16.9778H11.0211V20.3547C11.0211 20.8949 11.4591 21.3329 11.9993 21.3329C12.5396 21.3329 12.9775 20.8949 12.9775 20.3547V16.9778H16.3544C16.8947 16.9778 17.3326 16.5398 17.3326 15.9996C17.3326 15.4593 16.8947 15.0214 16.3544 15.0214H12.9775V11.6444C12.9775 11.1042 12.5396 10.6663 11.9993 10.6663C11.4591 10.6663 11.0211 11.1042 11.0211 11.6444Z" fill="#089C96"/>
  <path d="M6.66406 2.66653H6.16406V3.16653H6.66406V2.66653ZM17.3307 2.66653V3.16653H17.8307V2.66653H17.3307ZM2.66602 6.66653H2.16602V7.16653H2.66602V6.66653ZM21.3326 6.66653V7.16653H21.8326V6.66653H21.3326ZM11.0211 15.0214V15.5214H11.5211V15.0214H11.0211ZM11.0211 16.9778H11.5211V16.4778H11.0211V16.9778ZM12.9775 16.9778V16.4778H12.4775V16.9778H12.9775ZM12.9775 15.0214H12.4775V15.5214H12.9775V15.0214ZM7.16406 2.66653C7.16406 1.46992 8.13411 0.499878 9.33072 0.499878V-0.500122C7.58182 -0.500122 6.16406 0.917637 6.16406 2.66653H7.16406ZM17.3307 2.16653H6.66406V3.16653H17.3307V2.16653ZM14.664 0.499878C15.8606 0.499878 16.8307 1.46992 16.8307 2.66653H17.8307C17.8307 0.917637 16.4129 -0.500122 14.664 -0.500122V0.499878ZM9.33072 0.499878H14.664V-0.500122H9.33072V0.499878ZM5.33267 3.49988C3.58378 3.49988 2.16602 4.91764 2.16602 6.66653H3.16602C3.16602 5.46992 4.13606 4.49988 5.33267 4.49988V3.49988ZM18.6659 3.49988H5.33267V4.49988H18.6659V3.49988ZM21.8326 6.66653C21.8326 4.91764 20.4148 3.49988 18.6659 3.49988V4.49988C19.8626 4.49988 20.8326 5.46992 20.8326 6.66653H21.8326ZM2.66602 7.16653H21.3326V6.16653H2.66602V7.16653ZM0.5 9.99987C0.5 9.17145 1.17157 8.49988 1.99999 8.49988V7.49988C0.619284 7.49988 -0.5 8.61916 -0.5 9.99987H0.5ZM0.5 21.9998V9.99987H-0.5V21.9998H0.5ZM1.99999 23.4998C1.17157 23.4998 0.5 22.8282 0.5 21.9998H-0.5C-0.5 23.3805 0.619284 24.4998 1.99999 24.4998V23.4998ZM21.9999 23.4998H1.99999V24.4998H21.9999V23.4998ZM23.4999 21.9998C23.4999 22.8282 22.8283 23.4998 21.9999 23.4998V24.4998C23.3806 24.4998 24.4999 23.3805 24.4999 21.9998H23.4999ZM23.4999 9.99987V21.9998H24.4999V9.99987H23.4999ZM21.9999 8.49988C22.8283 8.49988 23.4999 9.17145 23.4999 9.99987H24.4999C24.4999 8.61916 23.3806 7.49988 21.9999 7.49988V8.49988ZM1.99999 8.49988H21.9999V7.49988H1.99999V8.49988ZM11.5211 15.0214V11.6444H10.5211V15.0214H11.5211ZM7.64421 15.5214H11.0211V14.5214H7.64421V15.5214ZM7.16602 15.9996C7.16602 15.7355 7.38011 15.5214 7.64421 15.5214V14.5214C6.82782 14.5214 6.16602 15.1832 6.16602 15.9996H7.16602ZM7.6442 16.4778C7.38011 16.4778 7.16602 16.2637 7.16602 15.9996H6.16602C6.16602 16.8159 6.82782 17.4778 7.6442 17.4778V16.4778ZM11.0211 16.4778H7.6442V17.4778H11.0211V16.4778ZM11.5211 20.3547V16.9778H10.5211V20.3547H11.5211ZM11.9993 20.8329C11.7352 20.8329 11.5211 20.6188 11.5211 20.3547H10.5211C10.5211 21.1711 11.1829 21.8329 11.9993 21.8329V20.8329ZM12.4775 20.3547C12.4775 20.6188 12.2634 20.8329 11.9993 20.8329V21.8329C12.8157 21.8329 13.4775 21.1711 13.4775 20.3547H12.4775ZM12.4775 16.9778V20.3547H13.4775V16.9778H12.4775ZM16.3544 16.4778H12.9775V17.4778H16.3544V16.4778ZM16.8326 15.9996C16.8326 16.2637 16.6185 16.4778 16.3544 16.4778V17.4778C17.1708 17.4778 17.8326 16.816 17.8326 15.9996H16.8326ZM16.3544 15.5214C16.6185 15.5214 16.8326 15.7355 16.8326 15.9996H17.8326C17.8326 15.1832 17.1708 14.5214 16.3544 14.5214V15.5214ZM12.9775 15.5214H16.3544V14.5214H12.9775V15.5214ZM12.4775 11.6444V15.0214H13.4775V11.6444H12.4775ZM11.9993 11.1663C12.2634 11.1663 12.4775 11.3804 12.4775 11.6444H13.4775C13.4775 10.8281 12.8157 10.1663 11.9993 10.1663V11.1663ZM11.5211 11.6444C11.5211 11.3804 11.7352 11.1663 11.9993 11.1663V10.1663C11.1829 10.1663 10.5211 10.8281 10.5211 11.6444H11.5211Z" fill="black" fill-opacity="0.08" mask="url(#path-1-inside-1_2701_44251)"/>
</svg>
